!!!SOCIAL_FUNCTION:	bird dance songs
!!!PDT:	1932
!!!OTL: No_104_Song_at_About_Midnight_(b).krn
!!!REG: Southwest
!!!LANG: Non-Tone
!!!LING_GROUP: Yuman-Cochimi
**kern	**kern
*staff2	*staff1
=1-	=1-
=	=
*clefF4	*clefF4
*k[f#c#]	*k[f#c#]
*M2/4	*M2/4
8GG/L	8.F#\L
8GG/J	.
.	16F#\Jk
8GG/	8A\L
16r	8B\J
16GG/	.
=2	=2
8GG/L	8d\L
8GG/J	8B\J
8GG/	8.A\L
16r	.
16GG/	16B\Jk
=3	=3
8GG/L	4A\
8GG/J	.
8GG/	8.F#\L
16r	.
16GG/	16F#\Jk
=4	=4
8GG/L	8.A\L
8GG/J	.
.	16F#\Jk
8GG/	8A\L
16r	8A\J
16GG/	.
=5	=5
8GG/L	4A\
8GG/J	.
4r	4r
=6	=6
8GG/L	8.F#\L
8GG/J	.
.	16F#\Jk
8GG/	8A\L
16r	8B\J
16GG/	.
=7	=7
8GG/L	8d\L
8GG/J	8B\J
8GG/	8A\L
16r	8B\J
16GG/	.
=8	=8
8GG/L	4A\
8GG/J	.
8GG/	8.F#\L
16r	.
16GG/	16F#\Jk
=9	=9
8GG/L	8.A\L
8GG/J	.
.	16F#\Jk
8GG/	8A\L
16r	8A\J
16GG/	.
=10	=10
8GG/L	4A\
8GG/J	.
4r	4r
=11:|!	=11:|!
2r	2r
=12	=12
2r	4r
.	8.r
.	16A\
=13	=13
8GG/L	8.A\L
8GG/J	.
.	16A\Jk
8GG/	8A\
16r	8r
16GG/	.
=14	=14
8GG/L	8e\L
8GG/J	8B\J
8GG/	8.A\L
16r	.
16GG/	16d\Jk
=15	=15
8GG/L	8d\L
8GG/J	8B\J
8GG/	8.A\L
16r	.
16GG/	16F#\Jk
=16	=16
8GG/L	8.A\L
8GG/J	.
.	16A\Jk
8GG/	8.B-\L
16r	.
16GG/	16d\Jk
=17	=17
8GG/L	8d\L
8GG/J	8B\J
8GG/	8A\L
16r	8B\J
16GG/	.
=18	=18
8GG/L	4A\
8GG/J	.
8GG/	8.F#\L
16r	.
16GG/	16F#\Jk
=19	=19
8GG/L	8.A\L
8GG/J	.
.	16F#\Jk
8GG/	8A\L
16r	8A\J
16GG/	.
=20	=20
8GG/L	4A\
8GG/J	.
4r	4r
=21	=21
8GG/L	8.F#\L
8GG/J	.
.	16F#\Jk
8GG/	8.A\L
16r	.
16GG/	16B\Jk
=22	=22
8GG/L	8d\L
8GG/J	8B\J
8GG/	8A\L
16r	8B\J
16GG/	.
=23	=23
8GG/L	4A\
8GG/J	.
8GG/	8.F#\L
16r	.
16GG/	16F#\Jk
=24	=24
8GG/L	8.A\L
8GG/J	.
.	16F#\Jk
8GG/	8A\L
16r	8A\J
16GG/	.
=25	=25
8GG/L	4A\
8GG/J	.
4r	4r
==	==
*-	*-
